images/skills/CSS.svg

<svg width="256" height="256" viewBox="0 0 256 256" fill="none" xmlns="http://www.w3.org/2000/svg">
<rect width="256" height="256" rx="60" fill="#0277BD"/>
<path d="M53.7527 102.651L56.6155 134.593H128.096V102.651H53.7527Z" fill="#EBEBEB"/>
<path d="M128.095 38H127.985H48L50.9036 69.9423H128.095V38Z" fill="#EBEBEB"/>
<path d="M128.095 218.841V185.608L127.955 185.645L92.3813 176.04L90.1072 150.564H72.821H58.0425L62.5175 200.718L127.948 218.882L128.095 218.841Z" fill="#EBEBEB"/>
<path d="M167.318 134.593L163.61 176.019L127.985 185.635V218.866L193.468 200.718L193.948 195.321L201.454 111.229L202.233 102.651L208 38H127.985V69.9423H172.994L170.088 102.651H127.985V134.593H167.318Z" fill="white"/>
</svg>

<?xml version="1.0" encoding="utf-8"?>
<!-- Generator: Adobe Illustrator 25.0.0, SVG Export Plug-In . SVG Version: 6.00 Build 0)  -->
<svg version="1.1" id="Layer_1" xmlns="http://www.w3.org/2000/svg" xmlns:xlink="http://www.w3.org/1999/xlink" x="0px" y="0px"
	 viewBox="0 0 256 256" style="enable-background:new 0 0 256 256;" xml:space="preserve">
<style type="text/css">
	.st0{fill:#555555;}
	.st1{fill:#EBEBEB;}
	.st2{fill:#FFFFFF;}
</style>
<path class="st0" d="M60,0h136c33.1,0,60,26.9,60,60v136c0,33.1-26.9,60-60,60H60c-33.1,0-60-26.9-60-60V60C0,26.9,26.9,0,60,0z"/>
<path class="st1" d="M53.8,102.7l2.9,31.9h71.5v-31.9H53.8z"/>
<path class="st1" d="M128.1,38H128H48l2.9,31.9h77.2V38z"/>
<path class="st1" d="M128.1,218.8v-33.2l-0.1,0L92.4,176l-2.3-25.5H72.8H58l4.5,50.2l65.4,18.2L128.1,218.8z"/>
<path class="st2" d="M167.3,134.6l-3.7,41.4l-35.6,9.6v33.2l65.5-18.1l0.5-5.4l7.5-84.1l0.8-8.6L208,38h-80v31.9h45l-2.9,32.7H128
	v31.9H167.3z"/>
</svg>
